icons/server.svg

<svg xmlns="http://www.w3.org/2000/svg" width="96" height="96"><path d="M11.3 4h73.4c2 0 3.8.8 5.2 2.1 1.3 1.4 2.1 3.2 2.1 5.2v13.4c0 2-.8 3.8-2.1 5.2-1.4 1.3-3.2 2.1-5.2 2.1H11.3c-2 0-3.8-.8-5.2-2.1C4.8 28.5 4 26.7 4 24.7V11.3c0-2 .8-3.8 2.1-5.2C7.5 4.8 9.3 4 11.3 4zM84 24H12V12h72v12zm-69-6c0-2.208 1.792-4 4-4s4 1.792 4 4-1.792 4-4 4-4-1.792-4-4zm-3.7 18h73.4c2 0 3.8.8 5.2 2.1 1.3 1.4 2.1 3.2 2.1 5.2v13.4c0 2-.8 3.8-2.1 5.2-1.4 1.3-3.2 2.1-5.2 2.1H11.3c-2 0-3.8-.8-5.2-2.1C4.8 60.5 4 58.7 4 56.7V43.3c0-2 .8-3.8 2.1-5.2 1.4-1.3 3.2-2.1 5.2-2.1zM84 56H12V44h72v12zm-69-6c0-2.208 1.792-4 4-4s4 1.792 4 4-1.792 4-4 4-4-1.792-4-4zm-3.7 18h73.4c2 0 3.8.8 5.2 2.1 1.3 1.4 2.1 3.2 2.1 5.2v13.4c0 2-.8 3.8-2.1 5.2-1.4 1.3-3.2 2.1-5.2 2.1H11.3c-2 0-3.8-.8-5.2-2.1C4.8 92.5 4 90.7 4 88.7V75.3c0-2 .8-3.8 2.1-5.2 1.4-1.3 3.2-2.1 5.2-2.1zM84 88H12V76h72v12zm-69-6c0-2.208 1.792-4 4-4s4 1.792 4 4-1.792 4-4 4-4-1.792-4-4z" fill-rule="evenodd" fill="#454545"/></svg>

<?xml version="1.0" standalone="no"?><!-- Generator: Gravit.io --><svg xmlns="http://www.w3.org/2000/svg" xmlns:xlink="http://www.w3.org/1999/xlink" width="96" height="96"><path d=" M 11.3 4 L 84.7 4 C 86.7 4 88.5 4.8 89.9 6.1 C 91.2 7.5 92 9.3 92 11.3 L 92 24.7 C 92 26.7 91.2 28.5 89.9 29.9 C 88.5 31.2 86.7 32 84.7 32 L 11.3 32 C 9.3 32 7.5 31.2 6.1 29.9 C 4.8 28.5 4 26.7 4 24.7 L 4 11.3 C 4 9.3 4.8 7.5 6.1 6.1 C 7.5 4.8 9.3 4 11.3 4 Z  M 84 24 L 84 24 L 12 24 L 12 24 L 12 12 L 12 12 L 84 12 L 84 24 Z  M 84 12 M 15 18 C 15 15.79233988198995 16.79233988198995 14 19 14 C 21.20766011801005 14 23 15.79233988198995 23 18 C 23 20.207660118010047 21.20766011801005 22 19 22 C 16.792339881989953 22 15 20.20766011801005 15 18 Z  M 11.3 36 L 84.7 36 C 86.7 36 88.5 36.8 89.9 38.1 C 91.2 39.5 92 41.3 92 43.3 L 92 56.7 C 92 58.7 91.2 60.5 89.9 61.9 C 88.5 63.2 86.7 64 84.7 64 L 11.3 64 C 9.3 64 7.5 63.2 6.1 61.9 C 4.8 60.5 4 58.7 4 56.7 L 4 43.3 C 4 41.3 4.8 39.5 6.1 38.1 C 7.5 36.8 9.3 36 11.3 36 Z  M 84 56 L 84 56 L 12 56 L 12 56 L 12 44 L 12 44 L 84 44 L 84 56 Z  M 84 44 M 15 50 C 15 47.79233988198995 16.79233988198995 46 19 46 C 21.20766011801005 46 23 47.792339881989946 23 50 C 23 52.20766011801005 21.20766011801005 54 19 54 C 16.792339881989953 54 15 52.207660118010054 15 50 Z  M 11.3 68 L 84.7 68 C 86.7 68 88.5 68.8 89.9 70.1 C 91.2 71.5 92 73.3 92 75.3 L 92 88.7 C 92 90.7 91.2 92.5 89.9 93.9 C 88.5 95.2 86.7 96 84.7 96 L 11.3 96 C 9.3 96 7.5 95.2 6.1 93.9 C 4.8 92.5 4 90.7 4 88.7 L 4 75.3 C 4 73.3 4.8 71.5 6.1 70.1 C 7.5 68.8 9.3 68 11.3 68 Z  M 84 88 L 84 88 L 12 88 L 12 88 L 12 76 L 12 76 L 84 76 L 84 88 Z  M 84 76 M 15 82 C 15 79.79233988198995 16.79233988198995 78 19 78 C 21.20766011801005 78 23 79.79233988198995 23 82 C 23 84.20766011801005 21.20766011801005 86 19 86 C 16.792339881989953 86 15 84.20766011801005 15 82 Z " fill-rule="evenodd" fill="#454545" stroke="none"/><mask id="_mask_Ku0FY8Er5OOaxGkrmAFejd2HRNxlTaLY"><path d=" M 11.3 4 L 84.7 4 C 86.7 4 88.5 4.8 89.9 6.1 C 91.2 7.5 92 9.3 92 11.3 L 92 24.7 C 92 26.7 91.2 28.5 89.9 29.9 C 88.5 31.2 86.7 32 84.7 32 L 11.3 32 C 9.3 32 7.5 31.2 6.1 29.9 C 4.8 28.5 4 26.7 4 24.7 L 4 11.3 C 4 9.3 4.8 7.5 6.1 6.1 C 7.5 4.8 9.3 4 11.3 4 Z  M 84 24 L 84 24 L 12 24 L 12 24 L 12 12 L 12 12 L 84 12 L 84 24 Z  M 84 12 M 15 18 C 15 15.79233988198995 16.79233988198995 14 19 14 C 21.20766011801005 14 23 15.79233988198995 23 18 C 23 20.207660118010047 21.20766011801005 22 19 22 C 16.792339881989953 22 15 20.20766011801005 15 18 Z  M 11.3 36 L 84.7 36 C 86.7 36 88.5 36.8 89.9 38.1 C 91.2 39.5 92 41.3 92 43.3 L 92 56.7 C 92 58.7 91.2 60.5 89.9 61.9 C 88.5 63.2 86.7 64 84.7 64 L 11.3 64 C 9.3 64 7.5 63.2 6.1 61.9 C 4.8 60.5 4 58.7 4 56.7 L 4 43.3 C 4 41.3 4.8 39.5 6.1 38.1 C 7.5 36.8 9.3 36 11.3 36 Z  M 84 56 L 84 56 L 12 56 L 12 56 L 12 44 L 12 44 L 84 44 L 84 56 Z  M 84 44 M 15 50 C 15 47.79233988198995 16.79233988198995 46 19 46 C 21.20766011801005 46 23 47.792339881989946 23 50 C 23 52.20766011801005 21.20766011801005 54 19 54 C 16.792339881989953 54 15 52.207660118010054 15 50 Z  M 11.3 68 L 84.7 68 C 86.7 68 88.5 68.8 89.9 70.1 C 91.2 71.5 92 73.3 92 75.3 L 92 88.7 C 92 90.7 91.2 92.5 89.9 93.9 C 88.5 95.2 86.7 96 84.7 96 L 11.3 96 C 9.3 96 7.5 95.2 6.1 93.9 C 4.8 92.5 4 90.7 4 88.7 L 4 75.3 C 4 73.3 4.8 71.5 6.1 70.1 C 7.5 68.8 9.3 68 11.3 68 Z  M 84 88 L 84 88 L 12 88 L 12 88 L 12 76 L 12 76 L 84 76 L 84 88 Z  M 84 76 M 15 82 C 15 79.79233988198995 16.79233988198995 78 19 78 C 21.20766011801005 78 23 79.79233988198995 23 82 C 23 84.20766011801005 21.20766011801005 86 19 86 C 16.792339881989953 86 15 84.20766011801005 15 82 Z " fill-rule="evenodd" fill="white" stroke="none"/></mask><path d=" M 11.3 4 L 84.7 4 C 86.7 4 88.5 4.8 89.9 6.1 C 91.2 7.5 92 9.3 92 11.3 L 92 24.7 C 92 26.7 91.2 28.5 89.9 29.9 C 88.5 31.2 86.7 32 84.7 32 L 11.3 32 C 9.3 32 7.5 31.2 6.1 29.9 C 4.8 28.5 4 26.7 4 24.7 L 4 11.3 C 4 9.3 4.8 7.5 6.1 6.1 C 7.5 4.8 9.3 4 11.3 4 Z  M 84 24 L 84 24 L 12 24 L 12 24 L 12 12 L 12 12 L 84 12 L 84 24 Z  M 84 12 M 15 18 C 15 15.79233988198995 16.79233988198995 14 19 14 C 21.20766011801005 14 23 15.79233988198995 23 18 C 23 20.207660118010047 21.20766011801005 22 19 22 C 16.792339881989953 22 15 20.20766011801005 15 18 Z  M 11.3 36 L 84.7 36 C 86.7 36 88.5 36.8 89.9 38.1 C 91.2 39.5 92 41.3 92 43.3 L 92 56.7 C 92 58.7 91.2 60.5 89.9 61.9 C 88.5 63.2 86.7 64 84.7 64 L 11.3 64 C 9.3 64 7.5 63.2 6.1 61.9 C 4.8 60.5 4 58.7 4 56.7 L 4 43.3 C 4 41.3 4.8 39.5 6.1 38.1 C 7.5 36.8 9.3 36 11.3 36 Z  M 84 56 L 84 56 L 12 56 L 12 56 L 12 44 L 12 44 L 84 44 L 84 56 Z  M 84 44 M 15 50 C 15 47.79233988198995 16.79233988198995 46 19 46 C 21.20766011801005 46 23 47.792339881989946 23 50 C 23 52.20766011801005 21.20766011801005 54 19 54 C 16.792339881989953 54 15 52.207660118010054 15 50 Z  M 11.3 68 L 84.7 68 C 86.7 68 88.5 68.8 89.9 70.1 C 91.2 71.5 92 73.3 92 75.3 L 92 88.7 C 92 90.7 91.2 92.5 89.9 93.9 C 88.5 95.2 86.7 96 84.7 96 L 11.3 96 C 9.3 96 7.5 95.2 6.1 93.9 C 4.8 92.5 4 90.7 4 88.7 L 4 75.3 C 4 73.3 4.8 71.5 6.1 70.1 C 7.5 68.8 9.3 68 11.3 68 Z  M 84 88 L 84 88 L 12 88 L 12 88 L 12 76 L 12 76 L 84 76 L 84 88 Z  M 84 76 M 15 82 C 15 79.79233988198995 16.79233988198995 78 19 78 C 21.20766011801005 78 23 79.79233988198995 23 82 C 23 84.20766011801005 21.20766011801005 86 19 86 C 16.792339881989953 86 15 84.20766011801005 15 82 Z " fill-rule="evenodd" fill="none" stroke="none" stroke-width="2" mask="url(#_mask_Ku0FY8Er5OOaxGkrmAFejd2HRNxlTaLY)"/></svg>
